Cross Browser Star Rating/food-off.svg

<svg width="8" height="8" viewBox="0 0 8 8" fill="none" xmlns="http://www.w3.org/2000/svg">
<g filter="url(#filter0_i_42_5)">
<path d="M2.12316 7.83991C1.63652 8.20539 1.07287 7.90237 0.736879 7.36192C-0.0863697 6.94263 -0.188499 6.4443 0.274895 5.92793C0.738289 5.41156 1.07453 5.93355 1.19903 5.92793L5.81968 1.14798C6.00916 1.07368 5.18922 0.713477 5.81968 0.191991C6.45014 -0.329495 6.82527 0.341091 7.20574 0.66999C8.20944 0.937904 8.13939 1.83729 7.66794 2.10397C7.30712 2.25135 7.10455 2.28104 6.74381 2.10397L2.12316 6.88392C2.12316 6.88392 2.60979 7.47443 2.12316 7.83991Z" fill="#D9D9D9"/>
<path d="M3.35561 7.09864C4.5607 7.11392 6.84619 4.41317 6.91768 3.28902C6.98918 2.16486 5.44948 1.03436 4.95818 1.03436C4.46687 1.03436 4.0913 1.17351 3.48427 1.53972C3.50874 2.24229 3.38003 2.52893 2.50166 2.55045C2.55246 3.39221 2.40342 3.68132 1.51904 3.56117C1.82165 4.08662 0.919291 4.73141 0.536429 4.5719C0.153568 4.41239 2.15052 7.08335 3.35561 7.09864Z" fill="#4F2E11"/>
</g>
<defs>
<filter id="filter0_i_42_5" x="0" y="0" width="8" height="8" filterUnits="userSpaceOnUse" color-interpolation-filters="sRGB">
<feFlood flood-opacity="0" result="BackgroundImageFix"/>
<feBlend mode="normal" in="SourceGraphic" in2="BackgroundImageFix" result="shape"/>
<feColorMatrix in="SourceAlpha" type="matrix" values="0 0 0 0 0 0 0 0 0 0 0 0 0 0 0 0 0 0 127 0" result="hardAlpha"/>
<feOffset dx="10" dy="10"/>
<feComposite in2="hardAlpha" operator="arithmetic" k2="-1" k3="1"/>
<feColorMatrix type="matrix" values="0 0 0 0 0.435294 0 0 0 0 0.435294 0 0 0 0 0.435294 0 0 0 1 0"/>
<feBlend mode="normal" in2="shape" result="effect1_innerShadow_42_5"/>
</filter>
</defs>
</svg>

<svg xmlns="http://www.w3.org/2000/svg"
     width="8"
     height="8"
     fill="none">
  <defs>
    <filter id="a">
      <feColorMatrix in="a1"
                     type="saturate"
                     values="0" />
    </filter>
  </defs>
  <g fill="red"
     filter="url(#a)">
    <path
          d="M2.123 7.84c-.486.365-1.05.062-1.386-.478-.823-.42-.925-.918-.462-1.434.463-.516.8.006.924 0l4.62-4.78c.19-.074-.63-.435 0-.956.631-.521 1.006.15 1.387.478 1.003.268.933 1.167.462 1.434-.36.147-.563.177-.924 0l-4.62 4.78s.486.59 0 .956Z" />
    <path
          d="M3.356 7.099c1.205.015 3.49-2.686 3.562-3.81.071-1.124-1.469-2.255-1.96-2.255-.491 0-.867.14-1.474.506.025.702-.104.989-.982 1.01.05.842-.099 1.131-.983 1.011.303.526-.6 1.17-.983 1.01-.382-.159 1.615 2.512 2.82 2.528Z" />
  </g>
</svg>
